X: 37920
T: Southwest Bridge
R: reel
M: 4/4
K: Eminor
D|B2 ED EFGA|Bedf eBGE|D2 AD FDAD|ABDE FEDE|
B2 ED EFGA|Bedf e2 ef|gfed ABdA|BdAF GE E:|
f|e2 Be GeBe|EGBG eBGE|d2 Ad FdAd|DFAd fedf|
e2 Be GeBG|EGBe gfeg|fedB ABdA|BdAF GE E:|

